src/pages/member/images/house.svg

<svg width="256" height="208" viewBox="0 0 256 208" fill="none" xmlns="http://www.w3.org/2000/svg">
<g opacity="0.75">
<rect x="68.5415" y="53.27" width="27.4412" height="94.8973" rx="1.87915" fill="#00C614"/>
<path d="M125.503 44.8137L184.543 115.752H68.5415L125.503 44.8137Z" fill="#96FF50"/>
<rect x="68.5415" y="112.463" width="116.417" height="94.8973" fill="#96FF50"/>
<rect x="185" y="116.055" width="58" height="91" fill="#1A9313"/>
<path d="M127 42.0554H175L256 117.555V136.953H204L127 42.0554Z" fill="#070F21"/>
<path d="M124.186 42.389C124.914 41.6519 126.101 41.6423 126.84 42.3677L203.937 118.018C204.297 118.371 204.5 118.855 204.5 119.359V133.431C204.5 135.086 202.516 135.933 201.321 134.788L126.823 63.4603C126.088 62.7565 124.926 62.7658 124.203 63.4813L52.2003 134.668C51.0135 135.841 49 135 49 133.331V119.342C49 118.848 49.1946 118.373 49.5417 118.022L124.186 42.389Z" fill="#00C614"/>
<circle cx="101.5" cy="145.555" r="8.5" fill="#192432"/>
<circle cx="147.5" cy="145.555" r="8.5" fill="#192432"/>
<path d="M133 154.555C133 159.25 129.194 163.055 124.5 163.055C119.806 163.055 116 159.25 116 154.555C116 153.055 116 153.055 124.5 153.055C133 153.055 133 153.055 133 154.555Z" fill="#192631"/>
<path d="M125 42.0554H175L256 117.555V137.555H243V207.055H68.5V118.555L52.4142 134.641C51.1543 135.901 49 135.009 49 133.227V118.555L125 42.0554Z" fill="url(#paint0_linear)"/>
</g>
<path d="M31 0.0553544H58.5C58.5 0.0553544 65.2515 0.555354 66 5.55535C67.0479 12.5554 60 15.5554 60 15.5554H91C91 15.5554 101 15.0554 101 28.0554C101 42.5554 85 49.0554 85 49.0554L86 34.5554H34.5C34.5 34.5554 25.5 34.5554 25.5 23.0554C25.5 14.5554 39 15.0554 39 15.0554C39 15.0554 50 15.5554 50 13.5554C50 12.1339 46.5 11.5554 46.5 11.5554H31C31 11.5554 20 11.0554 20 5.5554C20 -0.94458 31 0.0553544 31 0.0553544Z" fill="#AEC4F4"/>
<ellipse cx="7" cy="5.55542" rx="7" ry="5.5" fill="#AEC4F4"/>
<defs>
<linearGradient id="paint0_linear" x1="59.5" y1="145.055" x2="272.5" y2="144.055" gradientUnits="userSpaceOnUse">
<stop stop-color="#96FF50" stop-opacity="0.28"/>
<stop offset="1" stop-color="#96FF50" stop-opacity="0"/>
</linearGradient>
</defs>
</svg>

<?xml version="1.0" encoding="UTF-8"?>
<svg fill="none" viewBox="0 0 256 208" xmlns="http://www.w3.org/2000/svg">
<g opacity=".75">
<rect x="68.542" y="53.27" width="27.441" height="94.897" rx="1.8792" fill="#00C614"/>
<path d="m125.5 44.814 59.04 70.938h-116l56.962-70.938z" fill="#96FF50"/>
<rect x="68.542" y="112.46" width="116.42" height="94.897" fill="#96FF50"/>
<rect x="185" y="116.06" width="58" height="91" fill="#1A9313"/>
<path d="m127 42.055h48l81 75.5v19.398h-52l-77-94.898z" fill="#070F21"/>
<path d="m124.19 42.389c0.728-0.7371 1.915-0.7467 2.654-0.0213l77.097 75.65c0.36 0.353 0.563 0.837 0.563 1.341v14.072c0 1.655-1.984 2.502-3.179 1.357l-74.498-71.328c-0.735-0.7038-1.897-0.6945-2.62 0.021l-72.003 71.187c-1.1868 1.173-3.2003 0.332-3.2003-1.337v-13.989c0-0.494 0.1946-0.969 0.5417-1.32l74.644-75.633z" fill="#00C614"/>
<circle cx="101.5" cy="145.56" r="8.5" fill="#192432"/>
<circle cx="147.5" cy="145.56" r="8.5" fill="#192432"/>
<path d="m133 154.56c0 4.695-3.806 8.5-8.5 8.5s-8.5-3.805-8.5-8.5c0-1.5 0-1.5 8.5-1.5s8.5 0 8.5 1.5z" fill="#192631"/>
<path d="m125 42.055h50l81 75.5v20h-13v69.5h-174.5v-88.5l-16.086 16.086c-1.2599 1.26-3.4142 0.368-3.4142-1.414v-14.672l76-76.5z" fill="url(#a)"/>
</g>
<path d="m31 0.055354h27.5s6.7515 0.5 7.5 5.5c1.0479 7-6 10-6 10h31s10-0.5 10 12.5c0 14.5-16 21-16 21l1-14.5h-51.5s-9 0-9-11.5c0-8.5 13.5-8 13.5-8s11 0.5 11-1.5c0-1.4215-3.5-2-3.5-2h-15.5s-11-0.5-11-6c0-6.5 11-5.5 11-5.5z" fill="#AEC4F4"/>
<ellipse cx="7" cy="5.5554" rx="7" ry="5.5" fill="#AEC4F4"/>
<defs>
<linearGradient id="a" x1="59.5" x2="272.5" y1="145.06" y2="144.06" gradientUnits="userSpaceOnUse">
<stop stop-color="#96FF50" stop-opacity=".28" offset="0"/>
<stop stop-color="#96FF50" stop-opacity="0" offset="1"/>
</linearGradient>
</defs>
</svg>
